Assets/LUTs/Cinematic green luts/8.cube
#Generated by lutCreator.js
#Coded by SirSerch
#https://github.com/SirSerch/LutCreatorJs
TITLE lutCreatorJs_25
LUT_3D_SIZE 9
0.003922 0.007843 0.015686
0.011765 0.011765 0.011765
0.027451 0.011765 0.000000
0.050980 0.011765 0.007843
0.098039 0.011765 0.019608
0.172549 0.007843 0.015686
0.250980 0.003922 0.039216
0.376471 0.000000 0.043137
0.560784 0.000000 0.058824
0.015686 0.011765 0.031373
0.000000 0.019608 0.003922
0.039216 0.019608 0.003922
0.074510 0.015686 0.027451
0.101961 0.027451 0.011765
0.184314 0.007843 0.027451
0.270588 0.000000 0.027451
0.384314 0.003922 0.047059
0.537255 0.003922 0.050980
0.007843 0.047059 0.015686
0.035294 0.035294 0.043137
0.023529 0.070588 0.023529
0.117647 0.058824 0.039216
0.176471 0.054902 0.035294
0.250980 0.039216 0.031373
0.345098 0.011765 0.031373
0.478431 0.000000 0.058824
0.650980 0.000000 0.105882
0.047059 0.090196 0.074510
0.054902 0.094118 0.062745
0.054902 0.078431 0.078431
0.121569 0.133333 0.105882
0.258824 0.172549 0.082353
0.352941 0.149020 0.062745
0.450980 0.109804 0.074510
0.552941 0.113725 0.098039
0.690196 0.149020 0.141176
0.101961 0.160784 0.149020
0.129412 0.164706 0.152941
0.133333 0.176471 0.152941
0.164706 0.180392 0.184314
0.294118 0.298039 0.243137
0.435294 0.372549 0.243137
0.588235 0.356863 0.184314
0.686275 0.380392 0.192157
0.792157 0.470588 0.250980
0.231373 0.321569 0.250980
0.235294 0.317647 0.258824
0.235294 0.298039 0.258824
0.243137 0.262745 0.247059
0.341176 0.352941 0.317647
0.494118 0.478431 0.431373
0.639216 0.580392 0.466667
0.741176 0.611765 0.450980
0.839216 0.674510 0.517647
0.309804 0.415686 0.349020
0.352941 0.407843 0.349020
0.352941 0.407843 0.349020
0.349020 0.388235 0.352941
0.349020 0.368627 0.352941
0.501961 0.505882 0.474510
0.627451 0.635294 0.584314
0.745098 0.733333 0.674510
0.796078 0.788235 0.705882
0.462745 0.584314 0.521569
0.498039 0.596078 0.509804
0.533333 0.600000 0.537255
0.556863 0.584314 0.521569
0.537255 0.545098 0.525490
0.576471 0.596078 0.568627
0.690196 0.709804 0.686275
0.780392 0.796078 0.792157
0.878431 0.862745 0.850980
0.690196 0.772549 0.705882
0.698039 0.784314 0.733333
0.701961 0.780392 0.737255
0.729412 0.776471 0.760784
0.737255 0.780392 0.764706
0.749020 0.764706 0.760784
0.788235 0.815686 0.839216
0.847059 0.866667 0.882353
0.890196 0.905882 0.909804
0.007843 0.011765 0.019608
0.011765 0.011765 0.011765
0.023529 0.015686 0.019608
0.054902 0.019608 0.023529
0.098039 0.019608 0.023529
0.168627 0.011765 0.015686
0.239216 0.000000 0.027451
0.356863 0.000000 0.035294
0.517647 0.003922 0.074510
0.019608 0.027451 0.023529
0.011765 0.027451 0.023529
0.031373 0.023529 0.027451
0.062745 0.031373 0.019608
0.117647 0.035294 0.031373
0.180392 0.015686 0.023529
0.270588 0.000000 0.039216
0.376471 0.000000 0.043137
0.525490 0.000000 0.070588
0.023529 0.043137 0.054902
0.019608 0.058824 0.027451
0.019608 0.058824 0.066667
0.098039 0.062745 0.043137
0.172549 0.058824 0.043137
0.239216 0.039216 0.027451
0.329412 0.019608 0.043137
0.458824 0.000000 0.066667
0.603922 0.000000 0.101961
0.043137 0.082353 0.078431
0.062745 0.078431 0.074510
0.062745 0.078431 0.082353
0.109804 0.117647 0.098039
0.223529 0.152941 0.074510
0.301961 0.141176 0.070588
0.407843 0.121569 0.062745
0.529412 0.109804 0.086275
0.666667 0.137255 0.125490
0.074510 0.176471 0.125490
0.101961 0.180392 0.145098
0.121569 0.168627 0.160784
0.149020 0.172549 0.164706
0.258824 0.270588 0.235294
0.411765 0.337255 0.219608
0.549020 0.333333 0.172549
0.678431 0.364706 0.156863
0.788235 0.423529 0.254902
0.215686 0.309804 0.247059
0.219608 0.298039 0.250980
0.235294 0.278431 0.254902
0.231373 0.247059 0.250980
0.309804 0.333333 0.294118
0.458824 0.454902 0.384314
0.611765 0.556863 0.443137
0.741176 0.588235 0.427451
0.843137 0.643137 0.458824
0.298039 0.392157 0.329412
0.317647 0.407843 0.329412
0.333333 0.400000 0.337255
0.333333 0.376471 0.345098
0.349020 0.352941 0.333333
0.482353 0.482353 0.443137
0.623529 0.623529 0.584314
0.729412 0.729412 0.635294
0.823529 0.776471 0.713725
0.482353 0.572549 0.494118
0.509804 0.607843 0.494118
0.529412 0.584314 0.525490
0.525490 0.576471 0.509804
0.517647 0.541176 0.501961
0.576471 0.572549 0.556863
0.690196 0.698039 0.686275
0.784314 0.792157 0.788235
0.862745 0.858824 0.839216
0.674510 0.752941 0.705882
0.674510 0.780392 0.705882
0.698039 0.768627 0.721569
0.713725 0.764706 0.729412
0.721569 0.756863 0.745098
0.725490 0.756863 0.764706
0.780392 0.815686 0.811765
0.843137 0.862745 0.886275
0.886275 0.901961 0.905882
0.000000 0.015686 0.011765
0.000000 0.023529 0.015686
0.007843 0.023529 0.019608
0.035294 0.039216 0.019608
0.098039 0.023529 0.031373
0.160784 0.023529 0.047059
0.250980 0.003922 0.035294
0.388235 0.000000 0.047059
0.541176 0.011765 0.066667
0.015686 0.019608 0.039216
0.027451 0.023529 0.015686
0.019608 0.035294 0.039216
0.050980 0.035294 0.031373
0.109804 0.031373 0.027451
0.168627 0.027451 0.035294
0.274510 0.000000 0.031373
0.396078 0.000000 0.054902
0.541176 0.000000 0.086275
0.003922 0.062745 0.043137
0.019608 0.050980 0.062745
0.054902 0.054902 0.062745
0.090196 0.058824 0.050980
0.145098 0.062745 0.058824
0.243137 0.050980 0.066667
0.337255 0.023529 0.066667
0.470588 0.000000 0.062745
0.596078 0.019608 0.082353
0.027451 0.117647 0.094118
0.043137 0.101961 0.090196
0.070588 0.113725 0.098039
0.121569 0.129412 0.109804
0.219608 0.149020 0.101961
0.290196 0.133333 0.094118
0.407843 0.121569 0.094118
0.529412 0.117647 0.105882
0.690196 0.141176 0.137255
0.074510 0.196078 0.125490
0.070588 0.188235 0.156863
0.121569 0.196078 0.172549
0.149020 0.172549 0.164706
0.258824 0.262745 0.239216
0.403922 0.325490 0.231373
0.533333 0.317647 0.196078
0.658824 0.356863 0.192157
0.780392 0.431373 0.274510
0.176471 0.325490 0.243137
0.196078 0.317647 0.254902
0.235294 0.305882 0.258824
0.247059 0.282353 0.270588
0.294118 0.313725 0.286275
0.466667 0.443137 0.396078
0.600000 0.545098 0.443137
0.725490 0.580392 0.415686
0.843137 0.643137 0.458824
0.274510 0.411765 0.333333
0.321569 0.435294 0.349020
0.329412 0.419608 0.349020
0.349020 0.392157 0.360784
0.352941 0.360784 0.349020
0.470588 0.474510 0.443137
0.615686 0.623529 0.572549
0.737255 0.721569 0.674510
0.835294 0.772549 0.674510
0.470588 0.580392 0.521569
0.498039 0.592157 0.490196
0.505882 0.592157 0.501961
0.521569 0.568627 0.513725
0.525490 0.552941 0.521569
0.537255 0.560784 0.545098
0.682353 0.682353 0.674510
0.776471 0.792157 0.788235
0.870588 0.874510 0.843137
0.654902 0.796078 0.686275
0.670588 0.776471 0.717647
0.682353 0.776471 0.725490
0.701961 0.780392 0.737255
0.709804 0.768627 0.741176
0.737255 0.756863 0.768627
0.780392 0.800000 0.811765
0.835294 0.874510 0.882353
0.894118 0.901961 0.898039
0.003922 0.023529 0.047059
0.019608 0.023529 0.043137
0.031373 0.031373 0.031373
0.023529 0.043137 0.054902
0.074510 0.066667 0.070588
0.149020 0.043137 0.062745
0.231373 0.003922 0.058824
0.372549 0.000000 0.058824
0.552941 0.000000 0.082353
0.011765 0.019608 0.066667
0.003922 0.043137 0.047059
0.047059 0.043137 0.062745
0.027451 0.050980 0.043137
0.078431 0.070588 0.082353
0.156863 0.043137 0.062745
0.247059 0.003922 0.062745
0.368627 0.007843 0.066667
0.560784 0.000000 0.094118
0.000000 0.070588 0.078431
0.000000 0.066667 0.098039
0.047059 0.066667 0.082353
0.066667 0.090196 0.090196
0.117647 0.094118 0.109804
0.200000 0.054902 0.086275
0.313725 0.031373 0.086275
0.458824 0.000000 0.090196
0.639216 0.000000 0.117647
0.000000 0.121569 0.133333
0.007843 0.117647 0.129412
0.043137 0.137255 0.145098
0.121569 0.145098 0.137255
0.196078 0.133333 0.133333
0.274510 0.133333 0.133333
0.380392 0.125490 0.117647
0.505882 0.117647 0.129412
0.686275 0.145098 0.145098
0.003922 0.227451 0.200000
0.007843 0.227451 0.192157
0.109804 0.235294 0.192157
0.176471 0.227451 0.200000
0.266667 0.266667 0.258824
0.392157 0.309804 0.243137
0.505882 0.301961 0.219608
0.654902 0.325490 0.231373
0.800000 0.419608 0.243137
0.129412 0.376471 0.270588
0.160784 0.364706 0.278431
0.223529 0.356863 0.290196
0.274510 0.337255 0.298039
0.301961 0.321569 0.298039
0.454902 0.462745 0.419608
0.592157 0.537255 0.431373
0.729412 0.560784 0.423529
0.854902 0.627451 0.478431
0.250980 0.466667 0.352941
0.270588 0.470588 0.349020
0.313725 0.462745 0.364706
0.364706 0.447059 0.372549
0.384314 0.403922 0.376471
0.466667 0.470588 0.447059
0.619608 0.619608 0.588235
0.756863 0.709804 0.654902
0.850980 0.764706 0.682353
0.431373 0.643137 0.501961
0.486275 0.623529 0.498039
0.505882 0.623529 0.521569
0.549020 0.607843 0.533333
0.549020 0.576471 0.545098
0.545098 0.541176 0.525490
0.674510 0.682353 0.670588
0.780392 0.796078 0.792157
0.870588 0.854902 0.850980
0.662745 0.800000 0.705882
0.678431 0.792157 0.713725
0.690196 0.796078 0.737255
0.701961 0.788235 0.741176
0.713725 0.788235 0.764706
0.745098 0.764706 0.776471
0.780392 0.792157 0.811765
0.839216 0.874510 0.870588
0.878431 0.913725 0.909804
0.003922 0.027451 0.090196
0.011765 0.035294 0.098039
0.031373 0.047059 0.094118
0.058824 0.062745 0.070588
0.066667 0.090196 0.090196
0.113725 0.117647 0.125490
0.231373 0.101961 0.145098
0.337255 0.007843 0.101961
0.494118 0.000000 0.082353
0.035294 0.039216 0.109804
0.015686 0.054902 0.101961
0.031373 0.058824 0.090196
0.070588 0.074510 0.090196
0.070588 0.094118 0.094118
0.117647 0.133333 0.145098
0.227451 0.094118 0.149020
0.333333 0.003922 0.105882
0.454902 0.011765 0.082353
0.023529 0.066667 0.137255
0.007843 0.070588 0.129412
0.078431 0.074510 0.137255
0.101961 0.113725 0.133333
0.090196 0.133333 0.117647
0.168627 0.168627 0.168627
0.286275 0.098039 0.152941
0.384314 0.007843 0.117647
0.560784 0.000000 0.113725
0.000000 0.137255 0.211765
0.023529 0.121569 0.207843
0.035294 0.137255 0.196078
0.109804 0.164706 0.176471
0.149020 0.188235 0.184314
0.227451 0.184314 0.207843
0.321569 0.109804 0.164706
0.427451 0.082353 0.145098
0.631373 0.007843 0.156863
0.000000 0.258824 0.254902
0.000000 0.250980 0.286275
0.050980 0.258824 0.282353
0.160784 0.270588 0.282353
0.254902 0.274510 0.258824
0.356863 0.258824 0.270588
0.447059 0.270588 0.258824
0.596078 0.270588 0.254902
0.760784 0.321569 0.266667
0.000000 0.435294 0.380392
0.031373 0.435294 0.368627
0.149020 0.427451 0.364706
0.254902 0.407843 0.337255
0.341176 0.380392 0.345098
0.447059 0.447059 0.439216
0.596078 0.509804 0.427451
0.709804 0.533333 0.411765
0.839216 0.588235 0.478431
0.196078 0.525490 0.423529
0.239216 0.533333 0.403922
0.286275 0.521569 0.419608
0.345098 0.509804 0.415686
0.435294 0.490196 0.439216
0.439216 0.458824 0.431373
0.627451 0.627451 0.588235
0.752941 0.698039 0.654902
0.847059 0.756863 0.701961
0.396078 0.670588 0.537255
0.450980 0.670588 0.556863
0.486275 0.662745 0.572549
0.521569 0.662745 0.560784
0.564706 0.631373 0.568627
0.580392 0.588235 0.568627
0.666667 0.666667 0.658824
0.784314 0.800000 0.796078
0.862745 0.862745 0.862745
0.631373 0.800000 0.721569
0.658824 0.807843 0.749020
0.658824 0.819608 0.749020
0.694118 0.815686 0.756863
0.713725 0.807843 0.756863
0.749020 0.788235 0.784314
0.772549 0.792157 0.807843
0.847059 0.862745 0.858824
0.874510 0.905882 0.913725
0.000000 0.050980 0.149020
0.007843 0.047059 0.152941
0.035294 0.058824 0.145098
0.082353 0.078431 0.141176
0.098039 0.117647 0.129412
0.113725 0.137255 0.137255
0.172549 0.184314 0.203922
0.325490 0.180392 0.247059
0.509804 0.047059 0.250980
0.000000 0.043137 0.168627
0.015686 0.054902 0.160784
0.043137 0.066667 0.160784
0.090196 0.086275 0.149020
0.101961 0.121569 0.137255
0.129412 0.137255 0.125490
0.172549 0.192157 0.207843
0.309804 0.184314 0.227451
0.458824 0.039216 0.203922
0.000000 0.098039 0.215686
0.003922 0.098039 0.207843
0.047059 0.101961 0.203922
0.117647 0.121569 0.200000
0.149020 0.160784 0.188235
0.141176 0.188235 0.188235
0.215686 0.231373 0.235294
0.380392 0.200000 0.250980
0.525490 0.011765 0.168627
0.003922 0.113725 0.266667
0.003922 0.149020 0.254902
0.023529 0.145098 0.254902
0.121569 0.172549 0.235294
0.200000 0.203922 0.223529
0.188235 0.227451 0.223529
0.266667 0.262745 0.254902
0.392157 0.196078 0.243137
0.517647 0.019608 0.180392
0.000000 0.239216 0.309804
0.000000 0.258824 0.345098
0.027451 0.254902 0.333333
0.137255 0.266667 0.325490
0.247059 0.286275 0.321569
0.298039 0.313725 0.309804
0.364706 0.309804 0.309804
0.509804 0.176471 0.250980
0.639216 0.137255 0.227451
0.003922 0.419608 0.419608
0.000000 0.423529 0.415686
0.098039 0.415686 0.427451
0.188235 0.423529 0.415686
0.313725 0.407843 0.407843
0.427451 0.423529 0.443137
0.529412 0.411765 0.403922
0.654902 0.423529 0.400000
0.796078 0.478431 0.396078
0.066667 0.525490 0.462745
0.098039 0.552941 0.470588
0.180392 0.556863 0.501961
0.266667 0.556863 0.490196
0.380392 0.541176 0.470588
0.482353 0.509804 0.478431
0.600000 0.611765 0.584314
0.729412 0.666667 0.603922
0.819608 0.713725 0.647059
0.368627 0.709804 0.584314
0.400000 0.705882 0.603922
0.427451 0.694118 0.596078
0.462745 0.698039 0.600000
0.525490 0.674510 0.584314
0.592157 0.643137 0.615686
0.619608 0.627451 0.623529
0.772549 0.796078 0.796078
0.858824 0.850980 0.854902
0.603922 0.819608 0.737255
0.572549 0.847059 0.752941
0.615686 0.831373 0.741176
0.654902 0.831373 0.749020
0.690196 0.823529 0.768627
0.752941 0.819608 0.788235
0.772549 0.815686 0.823529
0.831373 0.862745 0.870588
0.901961 0.905882 0.913725
0.003922 0.062745 0.278431
0.003922 0.074510 0.270588
0.019608 0.086275 0.266667
0.117647 0.109804 0.262745
0.160784 0.164706 0.243137
0.200000 0.200000 0.207843
0.200000 0.223529 0.215686
0.282353 0.298039 0.301961
0.447059 0.372549 0.388235
0.000000 0.078431 0.274510
0.023529 0.074510 0.282353
0.023529 0.098039 0.266667
0.098039 0.121569 0.247059
0.168627 0.160784 0.215686
0.184314 0.207843 0.207843
0.207843 0.223529 0.219608
0.262745 0.301961 0.305882
0.454902 0.356863 0.372549
0.000000 0.101961 0.317647
0.007843 0.113725 0.321569
0.031373 0.121569 0.317647
0.145098 0.152941 0.301961
0.203922 0.196078 0.290196
0.227451 0.243137 0.254902
0.247059 0.270588 0.262745
0.333333 0.333333 0.341176
0.490196 0.380392 0.427451
0.000000 0.172549 0.345098
0.003922 0.160784 0.352941
0.003922 0.176471 0.352941
0.129412 0.200000 0.341176
0.227451 0.239216 0.305882
0.282353 0.278431 0.298039
0.274510 0.309804 0.298039
0.352941 0.372549 0.356863
0.521569 0.352941 0.392157
0.003922 0.266667 0.435294
0.000000 0.278431 0.466667
0.000000 0.282353 0.435294
0.109804 0.282353 0.419608
0.286275 0.298039 0.419608
0.360784 0.349020 0.392157
0.368627 0.392157 0.384314
0.454902 0.443137 0.423529
0.639216 0.352941 0.458824
0.000000 0.435294 0.521569
0.003922 0.439216 0.517647
0.015686 0.435294 0.498039
0.172549 0.431373 0.525490
0.305882 0.427451 0.509804
0.423529 0.439216 0.486275
0.498039 0.474510 0.474510
0.541176 0.478431 0.482353
0.709804 0.301961 0.400000
0.003922 0.552941 0.517647
0.090196 0.556863 0.572549
0.172549 0.564706 0.564706
0.258824 0.564706 0.572549
0.364706 0.560784 0.556863
0.470588 0.568627 0.552941
0.568627 0.576471 0.556863
0.698039 0.564706 0.556863
0.819608 0.592157 0.576471
0.313725 0.729412 0.690196
0.333333 0.725490 0.694118
0.384314 0.717647 0.690196
0.419608 0.725490 0.674510
0.482353 0.733333 0.670588
0.552941 0.717647 0.662745
0.647059 0.670588 0.654902
0.760784 0.800000 0.803922
0.862745 0.854902 0.858824
0.588235 0.854902 0.796078
0.584314 0.866667 0.811765
0.592157 0.862745 0.792157
0.619608 0.858824 0.796078
0.658824 0.858824 0.784314
0.694118 0.858824 0.780392
0.768627 0.843137 0.827451
0.823529 0.862745 0.870588
0.901961 0.905882 0.913725
0.011765 0.121569 0.450980
0.007843 0.129412 0.450980
0.023529 0.149020 0.443137
0.152941 0.184314 0.431373
0.262745 0.235294 0.407843
0.337255 0.282353 0.380392
0.337255 0.352941 0.349020
0.356863 0.376471 0.360784
0.423529 0.462745 0.431373
0.000000 0.129412 0.458824
0.000000 0.141176 0.439216
0.015686 0.149020 0.439216
0.164706 0.188235 0.431373
0.254902 0.231373 0.403922
0.313725 0.294118 0.380392
0.333333 0.352941 0.337255
0.352941 0.372549 0.356863
0.450980 0.458824 0.439216
0.000000 0.152941 0.466667
0.015686 0.160784 0.509804
0.011765 0.196078 0.478431
0.188235 0.219608 0.466667
0.294118 0.258824 0.443137
0.364706 0.329412 0.403922
0.376471 0.384314 0.380392
0.396078 0.411765 0.407843
0.454902 0.482353 0.454902
0.007843 0.211765 0.505882
0.000000 0.219608 0.537255
0.000000 0.235294 0.505882
0.176471 0.247059 0.490196
0.282353 0.298039 0.474510
0.388235 0.349020 0.443137
0.407843 0.407843 0.415686
0.423529 0.423529 0.415686
0.513725 0.498039 0.494118
0.000000 0.301961 0.584314
0.011765 0.313725 0.588235
0.003922 0.309804 0.600000
0.105882 0.325490 0.556863
0.337255 0.360784 0.556863
0.427451 0.411765 0.517647
0.478431 0.474510 0.466667
0.490196 0.490196 0.482353
0.596078 0.576471 0.560784
0.007843 0.482353 0.650980
0.007843 0.470588 0.650980
0.000000 0.478431 0.639216
0.054902 0.466667 0.654902
0.286275 0.454902 0.623529
0.462745 0.474510 0.603922
0.556863 0.533333 0.572549
0.560784 0.576471 0.572549
0.627451 0.643137 0.639216
0.015686 0.600000 0.686275
0.027451 0.611765 0.690196
0.156863 0.607843 0.682353
0.262745 0.607843 0.701961
0.345098 0.607843 0.674510
0.450980 0.600000 0.690196
0.580392 0.607843 0.670588
0.631373 0.650980 0.662745
0.690196 0.674510 0.678431
0.341176 0.749020 0.752941
0.360784 0.745098 0.749020
0.392157 0.741176 0.772549
0.435294 0.745098 0.764706
0.482353 0.745098 0.768627
0.552941 0.745098 0.760784
0.631373 0.752941 0.764706
0.752941 0.752941 0.760784
0.858824 0.776471 0.796078
0.560784 0.870588 0.847059
0.576471 0.870588 0.843137
0.572549 0.874510 0.850980
0.588235 0.882353 0.854902
0.627451 0.882353 0.858824
0.682353 0.890196 0.850980
0.756863 0.886275 0.858824
0.835294 0.882353 0.874510
0.882353 0.917647 0.913725
0.043137 0.250980 0.690196
0.141176 0.247059 0.690196
0.243137 0.278431 0.674510
0.349020 0.313725 0.670588
0.439216 0.372549 0.650980
0.541176 0.431373 0.623529
0.560784 0.509804 0.576471
0.549020 0.564706 0.568627
0.564706 0.576471 0.596078
0.007843 0.231373 0.686275
0.074510 0.243137 0.686275
0.215686 0.270588 0.682353
0.337255 0.313725 0.666667
0.435294 0.376471 0.639216
0.521569 0.427451 0.615686
0.552941 0.509804 0.572549
0.545098 0.560784 0.556863
0.564706 0.572549 0.560784
0.000000 0.266667 0.694118
0.066667 0.294118 0.686275
0.247059 0.305882 0.709804
0.356863 0.345098 0.686275
0.447059 0.396078 0.678431
0.541176 0.458824 0.627451
0.588235 0.529412 0.603922
0.584314 0.584314 0.584314
0.600000 0.596078 0.580392
0.000000 0.313725 0.721569
0.019608 0.301961 0.725490
0.125490 0.337255 0.721569
0.309804 0.364706 0.713725
0.443137 0.415686 0.717647
0.541176 0.470588 0.666667
0.596078 0.545098 0.623529
0.592157 0.596078 0.611765
0.607843 0.607843 0.615686
0.000000 0.388235 0.772549
0.015686 0.380392 0.784314
0.000000 0.396078 0.768627
0.211765 0.427451 0.752941
0.443137 0.462745 0.721569
0.552941 0.513725 0.721569
0.635294 0.584314 0.686275
0.647059 0.639216 0.650980
0.643137 0.639216 0.670588
0.000000 0.560784 0.823529
0.007843 0.549020 0.831373
0.000000 0.545098 0.815686
0.039216 0.525490 0.807843
0.333333 0.517647 0.792157
0.545098 0.552941 0.776471
0.654902 0.615686 0.752941
0.694118 0.686275 0.737255
0.690196 0.709804 0.721569
0.172549 0.686275 0.850980
0.203922 0.686275 0.858824
0.223529 0.701961 0.854902
0.286275 0.682353 0.862745
0.325490 0.674510 0.847059
0.466667 0.635294 0.850980
0.627451 0.678431 0.815686
0.733333 0.741176 0.788235
0.756863 0.772549 0.776471
0.431373 0.772549 0.882353
0.427451 0.800000 0.870588
0.462745 0.784314 0.878431
0.482353 0.788235 0.874510
0.517647 0.796078 0.874510
0.584314 0.788235 0.882353
0.639216 0.776471 0.862745
0.756863 0.800000 0.886275
0.839216 0.847059 0.835294
0.572549 0.886275 0.921569
0.576471 0.890196 0.894118
0.584314 0.890196 0.898039
0.619608 0.890196 0.917647
0.635294 0.886275 0.886275
0.678431 0.894118 0.905882
0.733333 0.905882 0.901961
0.819608 0.901961 0.921569
0.898039 0.917647 0.929412
