Assets/LUTs/Cinematic green luts/8.cube
#Generated by lutCreator.js
#Coded by SirSerch
#https://github.com/SirSerch/LutCreatorJs
TITLE lutCreatorJs_25
LUT_3D_SIZE 5
0.003922 0.007843 0.015686
0.027451 0.011765 0.000000
0.098039 0.011765 0.019608
0.250980 0.003922 0.039216
0.560784 0.000000 0.058824
0.007843 0.047059 0.015686
0.023529 0.070588 0.023529
0.176471 0.054902 0.035294
0.345098 0.011765 0.031373
0.650980 0.000000 0.105882
0.101961 0.160784 0.149020
0.133333 0.176471 0.152941
0.294118 0.298039 0.243137
0.588235 0.356863 0.184314
0.792157 0.470588 0.250980
0.309804 0.415686 0.349020
0.352941 0.407843 0.349020
0.349020 0.368627 0.352941
0.627451 0.635294 0.584314
0.796078 0.788235 0.705882
0.690196 0.772549 0.705882
0.701961 0.780392 0.737255
0.737255 0.780392 0.764706
0.788235 0.815686 0.839216
0.890196 0.905882 0.909804
0.000000 0.015686 0.011765
0.007843 0.023529 0.019608
0.098039 0.023529 0.031373
0.250980 0.003922 0.035294
0.541176 0.011765 0.066667
0.003922 0.062745 0.043137
0.054902 0.054902 0.062745
0.145098 0.062745 0.058824
0.337255 0.023529 0.066667
0.596078 0.019608 0.082353
0.074510 0.196078 0.125490
0.121569 0.196078 0.172549
0.258824 0.262745 0.239216
0.533333 0.317647 0.196078
0.780392 0.431373 0.274510
0.274510 0.411765 0.333333
0.329412 0.419608 0.349020
0.352941 0.360784 0.349020
0.615686 0.623529 0.572549
0.835294 0.772549 0.674510
0.654902 0.796078 0.686275
0.682353 0.776471 0.725490
0.709804 0.768627 0.741176
0.780392 0.800000 0.811765
0.894118 0.901961 0.898039
0.003922 0.027451 0.090196
0.031373 0.047059 0.094118
0.066667 0.090196 0.090196
0.231373 0.101961 0.145098
0.494118 0.000000 0.082353
0.023529 0.066667 0.137255
0.078431 0.074510 0.137255
0.090196 0.133333 0.117647
0.286275 0.098039 0.152941
0.560784 0.000000 0.113725
0.000000 0.258824 0.254902
0.050980 0.258824 0.282353
0.254902 0.274510 0.258824
0.447059 0.270588 0.258824
0.760784 0.321569 0.266667
0.196078 0.525490 0.423529
0.286275 0.521569 0.419608
0.435294 0.490196 0.439216
0.627451 0.627451 0.588235
0.847059 0.756863 0.701961
0.631373 0.800000 0.721569
0.658824 0.819608 0.749020
0.713725 0.807843 0.756863
0.772549 0.792157 0.807843
0.874510 0.905882 0.913725
0.003922 0.062745 0.278431
0.019608 0.086275 0.266667
0.160784 0.164706 0.243137
0.200000 0.223529 0.215686
0.447059 0.372549 0.388235
0.000000 0.101961 0.317647
0.031373 0.121569 0.317647
0.203922 0.196078 0.290196
0.247059 0.270588 0.262745
0.490196 0.380392 0.427451
0.003922 0.266667 0.435294
0.000000 0.282353 0.435294
0.286275 0.298039 0.419608
0.368627 0.392157 0.384314
0.639216 0.352941 0.458824
0.003922 0.552941 0.517647
0.172549 0.564706 0.564706
0.364706 0.560784 0.556863
0.568627 0.576471 0.556863
0.819608 0.592157 0.576471
0.588235 0.854902 0.796078
0.592157 0.862745 0.792157
0.658824 0.858824 0.784314
0.768627 0.843137 0.827451
0.901961 0.905882 0.913725
0.043137 0.250980 0.690196
0.243137 0.278431 0.674510
0.439216 0.372549 0.650980
0.560784 0.509804 0.576471
0.564706 0.576471 0.596078
0.000000 0.266667 0.694118
0.247059 0.305882 0.709804
0.447059 0.396078 0.678431
0.588235 0.529412 0.603922
0.600000 0.596078 0.580392
0.000000 0.388235 0.772549
0.000000 0.396078 0.768627
0.443137 0.462745 0.721569
0.635294 0.584314 0.686275
0.643137 0.639216 0.670588
0.172549 0.686275 0.850980
0.223529 0.701961 0.854902
0.325490 0.674510 0.847059
0.627451 0.678431 0.815686
0.756863 0.772549 0.776471
0.572549 0.886275 0.921569
0.584314 0.890196 0.898039
0.635294 0.886275 0.886275
0.733333 0.905882 0.901961
0.898039 0.917647 0.929412
