Assets/LUTs/Cinematic green luts/8.cube
#Generated by lutCreator.js
#Coded by SirSerch
#https://github.com/SirSerch/LutCreatorJs
TITLE lutCreatorJs_25
LUT_3D_SIZE 25
0.003922 0.007843 0.015686
0.000000 0.003922 0.011765
0.003922 0.011765 0.007843
0.011765 0.011765 0.011765
0.015686 0.015686 0.007843
0.019608 0.015686 0.000000
0.027451 0.011765 0.000000
0.031373 0.019608 0.000000
0.047059 0.015686 0.007843
0.050980 0.011765 0.007843
0.070588 0.015686 0.015686
0.086275 0.015686 0.015686
0.098039 0.011765 0.019608
0.121569 0.007843 0.015686
0.149020 0.007843 0.015686
0.172549 0.007843 0.015686
0.200000 0.000000 0.015686
0.219608 0.000000 0.023529
0.250980 0.003922 0.039216
0.282353 0.000000 0.043137
0.321569 0.003922 0.039216
0.376471 0.000000 0.043137
0.431373 0.000000 0.039216
0.490196 0.000000 0.054902
0.560784 0.000000 0.058824
0.000000 0.015686 0.011765
0.000000 0.011765 0.007843
0.000000 0.027451 0.023529
0.007843 0.007843 0.000000
0.027451 0.019608 0.023529
0.043137 0.000000 0.011765
0.023529 0.015686 0.019608
0.019608 0.015686 0.007843
0.035294 0.019608 0.007843
0.054902 0.023529 0.011765
0.062745 0.019608 0.011765
0.078431 0.015686 0.015686
0.109804 0.011765 0.023529
0.125490 0.003922 0.023529
0.149020 0.007843 0.023529
0.168627 0.000000 0.035294
0.196078 0.000000 0.035294
0.215686 0.000000 0.023529
0.247059 0.000000 0.031373
0.286275 0.000000 0.035294
0.337255 0.000000 0.043137
0.384314 0.000000 0.039216
0.431373 0.000000 0.043137
0.505882 0.000000 0.047059
0.545098 0.000000 0.098039
0.011765 0.003922 0.007843
0.003922 0.019608 0.015686
0.000000 0.023529 0.000000
0.011765 0.019608 0.007843
0.015686 0.011765 0.000000
0.031373 0.011765 0.035294
0.035294 0.011765 0.019608
0.047059 0.011765 0.015686
0.054902 0.015686 0.007843
0.062745 0.019608 0.003922
0.074510 0.023529 0.000000
0.094118 0.019608 0.003922
0.113725 0.011765 0.015686
0.133333 0.007843 0.019608
0.152941 0.011765 0.011765
0.172549 0.007843 0.015686
0.196078 0.003922 0.019608
0.223529 0.000000 0.027451
0.250980 0.003922 0.039216
0.294118 0.000000 0.035294
0.337255 0.000000 0.031373
0.380392 0.000000 0.035294
0.439216 0.000000 0.066667
0.474510 0.007843 0.031373
0.537255 0.003922 0.082353
0.015686 0.011765 0.031373
0.015686 0.011765 0.043137
0.000000 0.027451 0.015686
0.000000 0.019608 0.003922
0.007843 0.031373 0.015686
0.031373 0.031373 0.000000
0.039216 0.019608 0.003922
0.058824 0.019608 0.015686
0.066667 0.019608 0.027451
0.074510 0.015686 0.027451
0.082353 0.019608 0.023529
0.094118 0.023529 0.015686
0.101961 0.027451 0.011765
0.145098 0.007843 0.031373
0.164706 0.011765 0.031373
0.184314 0.007843 0.027451
0.211765 0.003922 0.027451
0.239216 0.000000 0.027451
0.270588 0.000000 0.027451
0.305882 0.003922 0.035294
0.325490 0.007843 0.043137
0.384314 0.003922 0.047059
0.415686 0.000000 0.027451
0.490196 0.000000 0.062745
0.537255 0.003922 0.050980
0.011765 0.027451 0.039216
0.015686 0.023529 0.003922
0.023529 0.031373 0.027451
0.007843 0.027451 0.011765
0.023529 0.027451 0.003922
0.031373 0.027451 0.007843
0.047059 0.031373 0.019608
0.058824 0.027451 0.019608
0.066667 0.027451 0.031373
0.074510 0.031373 0.023529
0.090196 0.031373 0.011765
0.105882 0.031373 0.003922
0.141176 0.023529 0.031373
0.145098 0.019608 0.023529
0.160784 0.019608 0.027451
0.180392 0.019608 0.035294
0.207843 0.015686 0.039216
0.239216 0.007843 0.031373
0.278431 0.007843 0.027451
0.301961 0.000000 0.023529
0.352941 0.000000 0.039216
0.380392 0.003922 0.050980
0.423529 0.000000 0.050980
0.478431 0.003922 0.062745
0.525490 0.011765 0.074510
0.015686 0.031373 0.027451
0.015686 0.031373 0.027451
0.015686 0.031373 0.027451
0.019608 0.035294 0.031373
0.027451 0.035294 0.031373
0.035294 0.035294 0.035294
0.047059 0.039216 0.043137
0.054902 0.047059 0.050980
0.086275 0.043137 0.027451
0.101961 0.043137 0.031373
0.117647 0.039216 0.035294
0.137255 0.035294 0.031373
0.156863 0.039216 0.039216
0.180392 0.039216 0.039216
0.203922 0.027451 0.039216
0.215686 0.023529 0.035294
0.250980 0.019608 0.035294
0.266667 0.011765 0.035294
0.305882 0.003922 0.035294
0.356863 0.003922 0.050980
0.400000 0.000000 0.054902
0.450980 0.000000 0.054902
0.505882 0.000000 0.062745
0.549020 0.003922 0.078431
0.635294 0.000000 0.105882
0.007843 0.047059 0.015686
0.031373 0.062745 0.019608
0.039216 0.031373 0.035294
0.035294 0.035294 0.043137
0.011765 0.043137 0.054902
0.019608 0.070588 0.043137
0.023529 0.070588 0.023529
0.070588 0.054902 0.050980
0.090196 0.058824 0.047059
0.117647 0.058824 0.039216
0.133333 0.054902 0.027451
0.152941 0.054902 0.035294
0.176471 0.054902 0.035294
0.200000 0.054902 0.031373
0.211765 0.050980 0.027451
0.250980 0.039216 0.031373
0.278431 0.039216 0.035294
0.309804 0.019608 0.023529
0.345098 0.011765 0.031373
0.384314 0.003922 0.039216
0.435294 0.003922 0.054902
0.478431 0.000000 0.058824
0.521569 0.007843 0.070588
0.580392 0.000000 0.054902
0.650980 0.000000 0.105882
0.019608 0.070588 0.043137
0.039216 0.054902 0.050980
0.031373 0.043137 0.062745
0.023529 0.058824 0.047059
0.047059 0.050980 0.031373
0.019608 0.062745 0.031373
0.039216 0.066667 0.039216
0.054902 0.074510 0.050980
0.090196 0.086275 0.066667
0.113725 0.094118 0.070588
0.133333 0.094118 0.058824
0.152941 0.086275 0.047059
0.172549 0.078431 0.031373
0.196078 0.078431 0.035294
0.250980 0.074510 0.062745
0.270588 0.070588 0.058824
0.298039 0.066667 0.050980
0.325490 0.050980 0.050980
0.356863 0.035294 0.058824
0.400000 0.019608 0.062745
0.454902 0.003922 0.070588
0.498039 0.000000 0.082353
0.541176 0.000000 0.070588
0.611765 0.015686 0.074510
0.650980 0.000000 0.125490
0.035294 0.074510 0.043137
0.043137 0.062745 0.047059
0.043137 0.066667 0.027451
0.058824 0.054902 0.039216
0.058824 0.062745 0.070588
0.050980 0.066667 0.078431
0.050980 0.066667 0.078431
0.058824 0.082353 0.074510
0.070588 0.098039 0.070588
0.105882 0.117647 0.082353
0.149020 0.125490 0.070588
0.188235 0.121569 0.058824
0.227451 0.117647 0.062745
0.258824 0.121569 0.043137
0.282353 0.121569 0.050980
0.294118 0.101961 0.043137
0.333333 0.090196 0.047059
0.376471 0.090196 0.062745
0.411765 0.074510 0.070588
0.447059 0.058824 0.070588
0.462745 0.050980 0.078431
0.521569 0.031373 0.086275
0.580392 0.050980 0.109804
0.611765 0.054902 0.101961
0.682353 0.062745 0.121569
0.047059 0.090196 0.074510
0.066667 0.074510 0.062745
0.035294 0.082353 0.043137
0.054902 0.094118 0.062745
0.047059 0.090196 0.098039
0.050980 0.082353 0.090196
0.054902 0.078431 0.078431
0.066667 0.090196 0.082353
0.090196 0.109804 0.094118
0.121569 0.133333 0.105882
0.156863 0.156863 0.109804
0.184314 0.176471 0.117647
0.258824 0.172549 0.082353
0.286275 0.168627 0.074510
0.317647 0.160784 0.062745
0.352941 0.149020 0.062745
0.392157 0.137255 0.066667
0.419608 0.121569 0.070588
0.450980 0.109804 0.074510
0.478431 0.113725 0.086275
0.517647 0.105882 0.082353
0.552941 0.113725 0.098039
0.600000 0.113725 0.105882
0.650980 0.125490 0.113725
0.690196 0.149020 0.141176
0.074510 0.125490 0.090196
0.070588 0.121569 0.086275
0.070588 0.121569 0.086275
0.078431 0.121569 0.098039
0.078431 0.113725 0.101961
0.078431 0.113725 0.101961
0.094118 0.117647 0.109804
0.101961 0.117647 0.121569
0.105882 0.141176 0.121569
0.133333 0.172549 0.141176
0.180392 0.211765 0.160784
0.235294 0.247059 0.172549
0.286275 0.262745 0.160784
0.341176 0.258824 0.145098
0.388235 0.243137 0.129412
0.431373 0.239216 0.121569
0.462745 0.211765 0.101961
0.486275 0.203922 0.105882
0.525490 0.196078 0.101961
0.556863 0.196078 0.105882
0.592157 0.203922 0.113725
0.627451 0.215686 0.129412
0.674510 0.243137 0.152941
0.709804 0.258824 0.176471
0.745098 0.317647 0.188235
0.094118 0.129412 0.125490
0.094118 0.133333 0.137255
0.094118 0.145098 0.078431
0.098039 0.160784 0.117647
0.101961 0.137255 0.133333
0.117647 0.156863 0.125490
0.121569 0.125490 0.141176
0.113725 0.133333 0.117647
0.133333 0.156863 0.141176
0.152941 0.188235 0.176471
0.180392 0.215686 0.196078
0.231373 0.250980 0.223529
0.298039 0.294118 0.223529
0.356863 0.309804 0.207843
0.396078 0.321569 0.192157
0.454902 0.294118 0.168627
0.490196 0.298039 0.168627
0.521569 0.286275 0.152941
0.552941 0.274510 0.149020
0.580392 0.270588 0.149020
0.623529 0.286275 0.156863
0.662745 0.301961 0.156863
0.705882 0.321569 0.176471
0.725490 0.360784 0.200000
0.796078 0.396078 0.207843
0.101961 0.160784 0.149020
0.090196 0.156863 0.125490
0.129412 0.192157 0.149020
0.129412 0.164706 0.152941
0.121569 0.188235 0.156863
0.117647 0.176471 0.149020
0.133333 0.176471 0.152941
0.129412 0.164706 0.152941
0.141176 0.164706 0.164706
0.164706 0.180392 0.184314
0.192157 0.211765 0.196078
0.239216 0.250980 0.215686
0.294118 0.298039 0.243137
0.345098 0.337255 0.278431
0.388235 0.368627 0.254902
0.435294 0.372549 0.243137
0.501961 0.368627 0.223529
0.549020 0.364706 0.200000
0.588235 0.356863 0.184314
0.623529 0.360784 0.184314
0.658824 0.368627 0.184314
0.686275 0.380392 0.192157
0.749020 0.392157 0.215686
0.768627 0.419608 0.262745
0.792157 0.470588 0.250980
0.117647 0.203922 0.152941
0.113725 0.207843 0.152941
0.156863 0.196078 0.160784
0.141176 0.207843 0.176471
0.141176 0.200000 0.180392
0.137255 0.196078 0.176471
0.152941 0.200000 0.184314
0.152941 0.196078 0.180392
0.145098 0.188235 0.172549
0.164706 0.200000 0.180392
0.188235 0.227451 0.196078
0.231373 0.250980 0.223529
0.282353 0.294118 0.266667
0.325490 0.341176 0.286275
0.396078 0.392157 0.321569
0.458824 0.415686 0.329412
0.505882 0.431373 0.305882
0.552941 0.439216 0.274510
0.588235 0.431373 0.239216
0.635294 0.435294 0.219608
0.678431 0.458824 0.235294
0.717647 0.454902 0.239216
0.733333 0.470588 0.262745
0.776471 0.474510 0.270588
0.815686 0.533333 0.301961
0.145098 0.207843 0.196078
0.145098 0.247059 0.196078
0.156863 0.243137 0.196078
0.149020 0.239216 0.207843
0.168627 0.231373 0.192157
0.168627 0.231373 0.192157
0.176471 0.227451 0.192157
0.176471 0.219608 0.196078
0.172549 0.215686 0.200000
0.176471 0.219608 0.203922
0.211765 0.235294 0.227451
0.239216 0.258824 0.243137
0.274510 0.317647 0.262745
0.321569 0.352941 0.294118
0.380392 0.396078 0.329412
0.443137 0.439216 0.356863
0.505882 0.478431 0.368627
0.549020 0.486275 0.356863
0.596078 0.486275 0.329412
0.631373 0.501961 0.325490
0.678431 0.517647 0.313725
0.713725 0.529412 0.325490
0.756863 0.537255 0.337255
0.792157 0.545098 0.345098
0.823529 0.564706 0.368627
0.231373 0.321569 0.250980
0.231373 0.321569 0.258824
0.231373 0.313725 0.254902
0.235294 0.317647 0.258824
0.243137 0.313725 0.266667
0.243137 0.305882 0.262745
0.235294 0.298039 0.258824
0.239216 0.290196 0.254902
0.254902 0.278431 0.270588
0.243137 0.262745 0.247059
0.250980 0.270588 0.254902
0.286275 0.305882 0.282353
0.341176 0.352941 0.317647
0.388235 0.396078 0.352941
0.450980 0.443137 0.392157
0.494118 0.478431 0.431373
0.541176 0.552941 0.447059
0.596078 0.576471 0.462745
0.639216 0.580392 0.466667
0.686275 0.588235 0.466667
0.709804 0.600000 0.447059
0.741176 0.611765 0.450980
0.788235 0.635294 0.466667
0.815686 0.639216 0.474510
0.839216 0.674510 0.517647
0.239216 0.321569 0.262745
0.215686 0.337255 0.278431
0.247059 0.341176 0.286275
0.266667 0.337255 0.274510
0.262745 0.333333 0.270588
0.266667 0.333333 0.262745
0.278431 0.325490 0.270588
0.278431 0.329412 0.294118
0.274510 0.321569 0.282353
0.266667 0.305882 0.270588
0.258824 0.298039 0.266667
0.282353 0.317647 0.298039
0.337255 0.364706 0.337255
0.396078 0.407843 0.372549
0.439216 0.447059 0.403922
0.462745 0.505882 0.443137
0.529412 0.545098 0.478431
0.600000 0.580392 0.505882
0.654902 0.611765 0.533333
0.690196 0.631373 0.541176
0.721569 0.654902 0.545098
0.756863 0.666667 0.541176
0.784314 0.682353 0.545098
0.800000 0.701961 0.580392
0.843137 0.709804 0.564706
0.301961 0.376471 0.301961
0.282353 0.384314 0.278431
0.274510 0.380392 0.305882
0.294118 0.380392 0.329412
0.309804 0.372549 0.329412
0.317647 0.364706 0.325490
0.301961 0.364706 0.313725
0.313725 0.368627 0.317647
0.317647 0.360784 0.329412
0.313725 0.349020 0.329412
0.298039 0.333333 0.313725
0.305882 0.333333 0.305882
0.345098 0.364706 0.337255
0.388235 0.400000 0.372549
0.450980 0.454902 0.431373
0.501961 0.490196 0.454902
0.552941 0.541176 0.482353
0.600000 0.588235 0.521569
0.639216 0.635294 0.556863
0.678431 0.666667 0.592157
0.713725 0.694118 0.615686
0.741176 0.709804 0.635294
0.768627 0.721569 0.619608
0.807843 0.745098 0.647059
0.850980 0.733333 0.639216
0.309804 0.415686 0.349020
0.298039 0.423529 0.329412
0.325490 0.423529 0.337255
0.352941 0.407843 0.349020
0.329412 0.427451 0.345098
0.341176 0.415686 0.341176
0.352941 0.407843 0.349020
0.352941 0.400000 0.345098
0.349020 0.388235 0.345098
0.349020 0.388235 0.352941
0.341176 0.380392 0.349020
0.337255 0.360784 0.345098
0.349020 0.368627 0.352941
0.403922 0.415686 0.388235
0.454902 0.458824 0.427451
0.501961 0.505882 0.474510
0.545098 0.552941 0.509804
0.592157 0.600000 0.549020
0.627451 0.635294 0.584314
0.682353 0.674510 0.627451
0.725490 0.709804 0.666667
0.745098 0.733333 0.674510
0.780392 0.733333 0.670588
0.811765 0.764706 0.701961
0.796078 0.788235 0.705882
0.368627 0.466667 0.380392
0.345098 0.462745 0.360784
0.376471 0.474510 0.392157
0.403922 0.462745 0.380392
0.388235 0.462745 0.388235
0.392157 0.458824 0.384314
0.400000 0.458824 0.384314
0.400000 0.454902 0.388235
0.392157 0.447059 0.388235
0.388235 0.435294 0.396078
0.384314 0.423529 0.388235
0.396078 0.419608 0.380392
0.380392 0.396078 0.400000
0.419608 0.427451 0.415686
0.462745 0.466667 0.447059
0.513725 0.509804 0.490196
0.564706 0.568627 0.537255
0.600000 0.611765 0.576471
0.639216 0.650980 0.607843
0.670588 0.686275 0.631373
0.713725 0.737255 0.682353
0.745098 0.760784 0.705882
0.772549 0.780392 0.725490
0.800000 0.792157 0.733333
0.823529 0.811765 0.752941
0.486275 0.580392 0.494118
0.482353 0.576471 0.490196
0.482353 0.576471 0.490196
0.486275 0.580392 0.494118
0.490196 0.576471 0.494118
0.490196 0.564706 0.486275
0.490196 0.556863 0.482353
0.486275 0.552941 0.478431
0.482353 0.549020 0.486275
0.490196 0.537255 0.490196
0.501961 0.521569 0.494118
0.505882 0.517647 0.490196
0.486275 0.494118 0.474510
0.482353 0.490196 0.470588
0.517647 0.525490 0.513725
0.568627 0.568627 0.560784
0.600000 0.619608 0.603922
0.647059 0.654902 0.635294
0.682353 0.690196 0.670588
0.709804 0.729412 0.701961
0.725490 0.764706 0.729412
0.752941 0.792157 0.756863
0.803922 0.823529 0.796078
0.831373 0.835294 0.811765
0.850980 0.858824 0.776471
0.462745 0.584314 0.521569
0.517647 0.588235 0.501961
0.521569 0.588235 0.513725
0.498039 0.596078 0.509804
0.517647 0.607843 0.545098
0.529412 0.600000 0.552941
0.533333 0.600000 0.537255
0.529412 0.596078 0.533333
0.541176 0.592157 0.525490
0.556863 0.584314 0.521569
0.556863 0.572549 0.517647
0.549020 0.560784 0.525490
0.537255 0.545098 0.525490
0.533333 0.541176 0.529412
0.541176 0.549020 0.545098
0.576471 0.596078 0.568627
0.623529 0.635294 0.607843
0.662745 0.674510 0.647059
0.690196 0.709804 0.686275
0.717647 0.741176 0.725490
0.752941 0.776471 0.768627
0.780392 0.796078 0.792157
0.819608 0.819608 0.811765
0.815686 0.850980 0.847059
0.878431 0.862745 0.850980
0.545098 0.639216 0.584314
0.552941 0.662745 0.576471
0.556863 0.647059 0.568627
0.596078 0.647059 0.576471
0.552941 0.674510 0.552941
0.588235 0.666667 0.560784
0.584314 0.666667 0.600000
0.584314 0.654902 0.592157
0.588235 0.643137 0.584314
0.592157 0.639216 0.592157
0.596078 0.635294 0.592157
0.600000 0.627451 0.596078
0.596078 0.615686 0.600000
0.596078 0.603922 0.592157
0.592157 0.592157 0.584314
0.619608 0.619608 0.611765
0.650980 0.658824 0.647059
0.674510 0.698039 0.690196
0.698039 0.737255 0.733333
0.737255 0.772549 0.768627
0.776471 0.792157 0.788235
0.807843 0.803922 0.796078
0.815686 0.831373 0.827451
0.835294 0.858824 0.819608
0.882353 0.878431 0.862745
0.603922 0.690196 0.639216
0.592157 0.721569 0.647059
0.623529 0.705882 0.647059
0.615686 0.705882 0.643137
0.643137 0.717647 0.639216
0.635294 0.725490 0.647059
0.639216 0.713725 0.639216
0.650980 0.705882 0.639216
0.654902 0.701961 0.647059
0.654902 0.701961 0.654902
0.658824 0.698039 0.662745
0.662745 0.690196 0.662745
0.666667 0.686275 0.662745
0.654902 0.670588 0.666667
0.662745 0.670588 0.666667
0.666667 0.674510 0.670588
0.686275 0.701961 0.698039
0.705882 0.741176 0.729412
0.733333 0.768627 0.764706
0.760784 0.792157 0.800000
0.792157 0.811765 0.823529
0.815686 0.827451 0.847059
0.815686 0.862745 0.847059
0.854902 0.858824 0.866667
0.870588 0.874510 0.890196
0.690196 0.772549 0.705882
0.690196 0.768627 0.721569
0.713725 0.764706 0.737255
0.698039 0.784314 0.733333
0.701961 0.792157 0.752941
0.701961 0.784314 0.749020
0.701961 0.780392 0.737255
0.709804 0.776471 0.745098
0.713725 0.772549 0.752941
0.729412 0.776471 0.760784
0.737255 0.772549 0.760784
0.741176 0.764706 0.756863
0.737255 0.780392 0.764706
0.733333 0.768627 0.756863
0.741176 0.764706 0.749020
0.749020 0.764706 0.760784
0.749020 0.768627 0.780392
0.760784 0.792157 0.803922
0.788235 0.815686 0.839216
0.807843 0.839216 0.850980
0.827451 0.847059 0.862745
0.847059 0.866667 0.882353
0.866667 0.882353 0.894118
0.874510 0.890196 0.894118
0.890196 0.905882 0.909804
0.011765 0.011765 0.019608
0.011765 0.011765 0.019608
0.011765 0.011765 0.019608
0.015686 0.007843 0.011765
0.015686 0.007843 0.011765
0.023529 0.007843 0.003922
0.031373 0.007843 0.007843
0.039216 0.015686 0.015686
0.058824 0.011765 0.019608
0.066667 0.007843 0.019608
0.078431 0.003922 0.011765
0.090196 0.011765 0.019608
0.098039 0.011765 0.019608
0.113725 0.011765 0.015686
0.129412 0.011765 0.011765
0.145098 0.011765 0.007843
0.196078 0.000000 0.031373
0.219608 0.000000 0.031373
0.250980 0.000000 0.031373
0.286275 0.000000 0.035294
0.325490 0.000000 0.031373
0.368627 0.000000 0.027451
0.427451 0.000000 0.039216
0.478431 0.000000 0.050980
0.556863 0.000000 0.031373
0.015686 0.007843 0.011765
0.000000 0.027451 0.015686
0.007843 0.011765 0.019608
0.011765 0.019608 0.015686
0.015686 0.019608 0.035294
0.000000 0.027451 0.000000
0.031373 0.011765 0.000000
0.027451 0.007843 0.023529
0.047059 0.011765 0.023529
0.062745 0.015686 0.023529
0.074510 0.015686 0.027451
0.090196 0.015686 0.031373
0.105882 0.007843 0.023529
0.125490 0.003922 0.023529
0.149020 0.011765 0.027451
0.172549 0.000000 0.031373
0.203922 0.003922 0.039216
0.223529 0.000000 0.027451
0.250980 0.003922 0.035294
0.282353 0.003922 0.027451
0.325490 0.007843 0.035294
0.364706 0.003922 0.023529
0.403922 0.007843 0.031373
0.470588 0.000000 0.035294
0.549020 0.003922 0.078431
0.000000 0.015686 0.000000
0.015686 0.007843 0.011765
0.035294 0.031373 0.015686
0.011765 0.007843 0.031373
0.031373 0.007843 0.007843
0.019608 0.015686 0.035294
0.031373 0.015686 0.011765
0.043137 0.023529 0.011765
0.062745 0.023529 0.015686
0.070588 0.027451 0.003922
0.078431 0.019608 0.000000
0.090196 0.019608 0.003922
0.105882 0.023529 0.011765
0.125490 0.023529 0.027451
0.137255 0.019608 0.027451
0.168627 0.015686 0.027451
0.192157 0.007843 0.031373
0.219608 0.000000 0.031373
0.247059 0.000000 0.035294
0.282353 0.003922 0.035294
0.325490 0.007843 0.031373
0.360784 0.011765 0.027451
0.400000 0.019608 0.062745
0.462745 0.000000 0.031373
0.556863 0.000000 0.062745
0.019608 0.015686 0.007843
0.011765 0.015686 0.023529
0.007843 0.023529 0.027451
0.023529 0.015686 0.027451
0.027451 0.027451 0.019608
0.023529 0.023529 0.015686
0.023529 0.019608 0.011765
0.047059 0.023529 0.023529
0.058824 0.027451 0.019608
0.062745 0.023529 0.019608
0.066667 0.023529 0.015686
0.082353 0.023529 0.011765
0.098039 0.019608 0.015686
0.145098 0.027451 0.035294
0.152941 0.015686 0.031373
0.168627 0.003922 0.019608
0.203922 0.003922 0.023529
0.235294 0.003922 0.027451
0.266667 0.000000 0.031373
0.301961 0.000000 0.047059
0.325490 0.000000 0.047059
0.360784 0.000000 0.027451
0.435294 0.003922 0.054902
0.478431 0.003922 0.039216
0.560784 0.000000 0.050980
0.000000 0.039216 0.027451
0.011765 0.015686 0.023529
0.000000 0.027451 0.000000
0.015686 0.035294 0.019608
0.007843 0.027451 0.000000
0.027451 0.031373 0.000000
0.043137 0.043137 0.011765
0.050980 0.039216 0.011765
0.058824 0.039216 0.023529
0.066667 0.035294 0.023529
0.078431 0.035294 0.019608
0.090196 0.039216 0.015686
0.141176 0.023529 0.015686
0.145098 0.023529 0.015686
0.168627 0.015686 0.027451
0.184314 0.019608 0.035294
0.207843 0.007843 0.035294
0.239216 0.000000 0.027451
0.286275 0.003922 0.019608
0.309804 0.000000 0.011765
0.345098 0.003922 0.035294
0.380392 0.003922 0.047059
0.431373 0.000000 0.050980
0.482353 0.000000 0.054902
0.533333 0.003922 0.070588
0.007843 0.047059 0.015686
0.007843 0.047059 0.015686
0.007843 0.047059 0.015686
0.015686 0.043137 0.015686
0.015686 0.043137 0.011765
0.019608 0.039216 0.011765
0.039216 0.050980 0.023529
0.050980 0.054902 0.031373
0.054902 0.058824 0.003922
0.078431 0.050980 0.011765
0.101961 0.043137 0.015686
0.121569 0.039216 0.019608
0.149020 0.039216 0.027451
0.172549 0.039216 0.031373
0.192157 0.035294 0.035294
0.203922 0.031373 0.035294
0.258824 0.015686 0.027451
0.274510 0.003922 0.023529
0.313725 0.000000 0.035294
0.345098 0.003922 0.039216
0.384314 0.003922 0.039216
0.431373 0.000000 0.043137
0.486275 0.000000 0.043137
0.537255 0.007843 0.062745
0.623529 0.000000 0.121569
0.011765 0.047059 0.027451
0.011765 0.050980 0.019608
0.023529 0.039216 0.043137
0.039216 0.043137 0.011765
0.035294 0.031373 0.011765
0.035294 0.043137 0.039216
0.031373 0.066667 0.062745
0.062745 0.066667 0.043137
0.078431 0.066667 0.031373
0.101961 0.062745 0.015686
0.121569 0.058824 0.007843
0.145098 0.058824 0.007843
0.172549 0.062745 0.019608
0.184314 0.054902 0.019608
0.203922 0.058824 0.027451
0.239216 0.043137 0.047059
0.274510 0.039216 0.047059
0.301961 0.015686 0.043137
0.341176 0.003922 0.039216
0.376471 0.000000 0.047059
0.419608 0.000000 0.058824
0.466667 0.000000 0.058824
0.505882 0.000000 0.070588
0.580392 0.000000 0.070588
0.619608 0.000000 0.117647
0.015686 0.062745 0.023529
0.011765 0.054902 0.031373
0.019608 0.050980 0.062745
0.031373 0.054902 0.054902
0.031373 0.054902 0.039216
0.019608 0.062745 0.047059
0.043137 0.062745 0.039216
0.058824 0.066667 0.047059
0.090196 0.078431 0.050980
0.117647 0.090196 0.058824
0.141176 0.090196 0.054902
0.156863 0.086275 0.039216
0.184314 0.078431 0.035294
0.200000 0.082353 0.043137
0.247059 0.062745 0.039216
0.270588 0.062745 0.047059
0.298039 0.058824 0.047059
0.329412 0.047059 0.050980
0.356863 0.035294 0.058824
0.400000 0.019608 0.062745
0.443137 0.003922 0.066667
0.478431 0.000000 0.066667
0.541176 0.000000 0.086275
0.592157 0.007843 0.082353
0.615686 0.000000 0.141176
0.043137 0.062745 0.035294
0.039216 0.058824 0.043137
0.054902 0.066667 0.039216
0.035294 0.070588 0.050980
0.035294 0.058824 0.058824
0.058824 0.054902 0.074510
0.054902 0.058824 0.074510
0.058824 0.074510 0.070588
0.074510 0.094118 0.070588
0.105882 0.109804 0.078431
0.152941 0.121569 0.070588
0.188235 0.113725 0.054902
0.223529 0.113725 0.058824
0.235294 0.113725 0.035294
0.262745 0.117647 0.043137
0.290196 0.105882 0.043137
0.325490 0.090196 0.047059
0.360784 0.086275 0.047059
0.396078 0.070588 0.047059
0.427451 0.058824 0.058824
0.450980 0.058824 0.066667
0.501961 0.043137 0.078431
0.549020 0.035294 0.090196
0.619608 0.039216 0.101961
0.678431 0.054902 0.141176
0.043137 0.090196 0.074510
0.047059 0.094118 0.086275
0.050980 0.094118 0.078431
0.047059 0.086275 0.082353
0.054902 0.090196 0.086275
0.058824 0.082353 0.082353
0.058824 0.074510 0.070588
0.070588 0.090196 0.074510
0.098039 0.105882 0.086275
0.117647 0.129412 0.094118
0.149020 0.149020 0.101961
0.176471 0.168627 0.109804
0.227451 0.164706 0.074510
0.258824 0.164706 0.070588
0.294118 0.160784 0.062745
0.329412 0.149020 0.058824
0.364706 0.133333 0.070588
0.392157 0.117647 0.070588
0.427451 0.113725 0.086275
0.454902 0.109804 0.094118
0.498039 0.113725 0.078431
0.529412 0.121569 0.086275
0.580392 0.121569 0.094118
0.631373 0.125490 0.105882
0.678431 0.149020 0.133333
0.074510 0.117647 0.101961
0.074510 0.117647 0.101961
0.074510 0.117647 0.101961
0.078431 0.113725 0.101961
0.082353 0.117647 0.113725
0.090196 0.113725 0.113725
0.094118 0.109804 0.113725
0.094118 0.109804 0.113725
0.113725 0.129412 0.133333
